X:1
T:I Move On (Sintel's song)
T:I Move On (Sintel's Song)
T:From the short film “Sintel”
T:JAN MORGENSTERN
T:ESTHER WOUDA
C:Jan Morgenstern
Z:Creative Commons BY-NC-SA
L:1/8
Q:1/4=72
M:4/4
K:Eb
V:1 treble 
%%MIDI program 0
V:1
"Cm""Bb/D" z8 |"Fm""Gm" z8 |"Cm""Bb" z8 |"Fm""Ab" z8 |"Eb""Gm" z8 |"F""Cm" z8 |"Gm""F" z8 | %7
w: |||||||
w: |||||||
"Eb" z8 |"Cm" z GGB"Bb/D" F D3 |"Fm" C3 B,"Gm" D4 |"Cm" z CCE"Bb" E D3 |"Fm" C3 F"Ab" F2 E2 | %12
w: |Come take my jour- ney|in- to night|come be my sha- dow.|wait at my side|
w: |||||
"Eb" z GGB"Gm" B4 |"F" =AGFC"Cm" E3 z |"Gm" DCB,D"F" C2 F2 |"Eb" B,6 z2 |:"Cm" z GGB"Dm7#5" F D3 | %17
w: and when you see|all that I have seen|can you tell me love from|pride?|I have been wai- ting|
w: ||||I will be liste- ning|
"Fm/C" C3 B,"Gm" D4 |"Cm" z CCE"Dm7#5" E D3 |"Fm/C" C3 F"Absus2" F2"Ab" E2 |"Eb" z GGB"Gm" B4 | %21
w: all this time|for one to wake me,|one to call mine|so when you're near|
w: for the drum|to call me o- ver,|far a- way from|my ten- der youth|
"Db/F" FEFA"Ab" A3 z |"Cb" A_GGF A3 B |"Bb7sus4" B6"Bb" z c/d/ |"Cm" e4- e"Ab"c"Gm"B"Ab"E | %25
w: all that you hold dear|do you fear what you will|find? As the|dawn _ breaks through the|
w: and the ve- ry truth|show- ing me what I've be-|come * *||
"Eb""Bbsus4" B6"Bb" z c/d/ |"Cm" e4-"F" ecfc |"Ab" c3 B"Gm" G3 B |"Cm" E3 z"Gm" GB"Ab" E>F |1 %29
w: night I move|on, _ for- e- ver|long- ing for the|home I found in your|
w: ||||
"Eb""G" G6 z2 |"Cm" z8 | z8 :|2"Eb" G4-"G7" G z =B2 ||"Ab"[Q:1/4=60]"^rit." c4"Fm9" GBFC | %34
w: eyes|||eyes _ your|voice saw me through the|
w: |||||
"Cm" !fermata!E8 |] %35
w: night.|
w: |

